rospo-dark/24x24/actions/align-horizontal-node.svg

<svg height="24" viewBox="0 0 24 24" width="24" xmlns="http://www.w3.org/2000/svg"><path d="m .4921875-.00195313v.00195313a.49975.49977 0 0 0 -.36328125.83007812c.90656995 1.05799998 2.55001565 1.56922188 4.47851565 1.98242188 1.3663.2926 2.8804718.5178937 4.3886719.7460938v2.4453124h2.0058592v3h-2.0058592v1.4394528c-.004.0007-.0077198 0-.0117188 0-2.1094.3464-4.22805.798794-5.90625 1.683594-1.6783.8848-2.93145937 2.283138-3.06835937 4.335938-.05399001.8151.24784312 1.540971.78320312 2.076171.53536995.535301 1.27474375.906066 2.15234375 1.197266 1.619.5372 3.7466812.799166 6.0507813 1.009766v2.251953h2.0058592v.996094h.5.5v-.5-.496094h1.992188v-1.806641c3.7041.3626 7.244403.90085 9.220703 2.21875a.49998.49999 0 1 0  .554687-.832031c-2.3268-1.5516-6.01639-2.076663-9.77539-2.414063v-2.164062h-1.992188v-4h1.992188v-3.339844c.3544-.068.708026-.135844 1.035156-.214844.84919-.2053 1.598325-.4532464 2.203125-.8105464.60485-.3572 1.0852-.8547719 1.25-1.5136718.20915-.8373.108197-1.6132407-.257813-2.2441407-.36611-.631-.963263-1.1057281-1.683593-1.4863281-.72804-.3846-1.595775-.6826344-2.546875-.9277344v-2.4589844h-1.992188v-.49999995-.5h-1v .5.49999995h-2.0058592v1.5410157c-1.4593-.2216-2.9061876-.4400907-4.1796876-.7128907-1.8616999-.3987999-3.3354343-.96299683-3.92773432-1.65429682a.49975.49977 0 0 0 -.39648438-.17968751zm13.5019535 4.51562503c.79883.219 1.517478.4664719 2.080078.7636719.61585.3253999 1.048556.6957156 1.285156 1.1035156.23664.4078.311604.8626.152344 1.5-.08498.3406-.32442.6231843-.78711.8964844-.46278.2733-1.131687.5063187-1.929687.6992187-.24866.06-.529301.1122156-.800781.1660156v-.6386719h-1.992188v-3h1.992188zm-4.9980472 6.9453121v2.542969h2.0058592v4h-2.0058592v1.740235c-2.2483001-.209101-4.2958282-.473172-5.7363282-.951172-.7915-.2627-1.3946187-.590032-1.7617187-.957032-.36711-.367-.5273344-.746434-.4902344-1.302734.11297-1.6955 1.0457094-2.733231 2.5371094-3.519531 1.455-.7672 3.4287718-1.214735 5.4511719-1.552735z" fill="#d3dae3"/></svg>

<svg xmlns="http://www.w3.org/2000/svg" width="24" height="24" viewBox="0 0 24 24">
 <defs>
  <style id="current-color-scheme" type="text/css">
   .ColorScheme-Text { color:#d3dae3; } .ColorScheme-Highlight { color:#5294e2; }
  </style>
 </defs>
 <path style="fill:currentColor" class="ColorScheme-Text" d="M 0.4921875 -0.001953125 L 0.4921875 0 A 0.49975 0.49977 0 0 0 0.12890625 0.83007812 C 1.0354762 1.8880781 2.6789219 2.3993 4.6074219 2.8125 C 5.9737219 3.1051 7.4878937 3.3303937 8.9960938 3.5585938 L 8.9960938 6.0039062 L 11.001953 6.0039062 L 11.001953 9.0039062 L 8.9960938 9.0039062 L 8.9960938 10.443359 C 8.9920938 10.444059 8.988374 10.443359 8.984375 10.443359 C 6.874975 10.789759 4.756325 11.242153 3.078125 12.126953 C 1.399825 13.011753 0.14666563 14.410091 0.009765625 16.462891 C -0.044224375 17.277991 0.25760875 18.003862 0.79296875 18.539062 C 1.3283387 19.074363 2.0677125 19.445128 2.9453125 19.736328 C 4.5643125 20.273528 6.6919937 20.535494 8.9960938 20.746094 L 8.9960938 22.998047 L 11.001953 22.998047 L 11.001953 23.994141 L 11.501953 23.994141 L 12.001953 23.994141 L 12.001953 23.494141 L 12.001953 22.998047 L 13.994141 22.998047 L 13.994141 21.191406 C 17.698241 21.554006 21.238544 22.092256 23.214844 23.410156 A 0.49998 0.49999 0 1 0 23.769531 22.578125 C 21.442731 21.026525 17.753141 20.501462 13.994141 20.164062 L 13.994141 18 L 12.001953 18 L 12.001953 14 L 13.994141 14 L 13.994141 10.660156 C 14.348541 10.592156 14.702167 10.524312 15.029297 10.445312 C 15.878487 10.240012 16.627622 9.9920656 17.232422 9.6347656 C 17.837272 9.2775656 18.317622 8.7799937 18.482422 8.1210938 C 18.691572 7.2837938 18.590619 6.5078531 18.224609 5.8769531 C 17.858499 5.2459531 17.261346 4.771225 16.541016 4.390625 C 15.812976 4.006025 14.945241 3.7079906 13.994141 3.4628906 L 13.994141 1.0039062 L 12.001953 1.0039062 L 12.001953 0.50390625 L 12.001953 0.00390625 L 11.001953 0.00390625 L 11.001953 0.50390625 L 11.001953 1.0039062 L 8.9960938 1.0039062 L 8.9960938 2.5449219 C 7.5367938 2.3233219 6.0899062 2.1048312 4.8164062 1.8320312 C 2.9547063 1.4332313 1.4809719 0.86903437 0.88867188 0.17773438 A 0.49975 0.49977 0 0 0 0.4921875 -0.001953125 z M 13.994141 4.5136719 C 14.792971 4.7326719 15.511619 4.9801438 16.074219 5.2773438 C 16.690069 5.6027437 17.122775 5.9730594 17.359375 6.3808594 C 17.596015 6.7886594 17.670979 7.2434594 17.511719 7.8808594 C 17.426739 8.2214594 17.187299 8.5040437 16.724609 8.7773438 C 16.261829 9.0506438 15.592922 9.2836625 14.794922 9.4765625 C 14.546262 9.5365625 14.265621 9.5887781 13.994141 9.6425781 L 13.994141 9.0039062 L 12.001953 9.0039062 L 12.001953 6.0039062 L 13.994141 6.0039062 L 13.994141 4.5136719 z M 8.9960938 11.458984 L 8.9960938 14.001953 L 11.001953 14.001953 L 11.001953 18.001953 L 8.9960938 18.001953 L 8.9960938 19.742188 C 6.7477937 19.533087 4.7002656 19.269016 3.2597656 18.791016 C 2.4682656 18.528316 1.8651469 18.200984 1.4980469 17.833984 C 1.1309369 17.466984 0.9707125 17.08755 1.0078125 16.53125 C 1.1207825 14.83575 2.0535219 13.798019 3.5449219 13.011719 C 4.9999219 12.244519 6.9736937 11.796984 8.9960938 11.458984 z"/>
</svg>
